X:21
T:no name
R:barndance
D:Sharon Shannon: Out the Gap
Z:id:hn-barndance-21
M:C|
L:1/8
K:A
AF | ECEF EA,CE | FAAF A2AB | ABcB AcBA | F2FE F2AF |
ECEF EA,CE | FAAF A2af | eccB AcBA | F2A2 A2 :|
|: AB | ceef e2ce | faab a3f | eccB AcBA |
[1 F2FE F2AB | ceef e2ce | faaf a2fa | eccB AcBA | F2A2 A2 :|
[2 F2FE F2AF | ECEF EA,CE | FAAF A2af | eccB AcBA | F2A2 A2 ||

